images/16758585.svg

<?xml version="1.0" encoding="UTF-8"?>
<svg xmlns="http://www.w3.org/2000/svg" xmlns:xlink="http://www.w3.org/1999/xlink" width="300pt" height="300pt" viewBox="0 0 300 300" version="1.1">
<defs>
<g>
<symbol overflow="visible" id="glyph0-0">
<path style="stroke:none;" d="M 0.453125 1.59375 L 0.453125 -6.34375 L 4.953125 -6.34375 L 4.953125 1.59375 Z M 0.953125 1.09375 L 4.453125 1.09375 L 4.453125 -5.84375 L 0.953125 -5.84375 Z M 0.953125 1.09375 "/>
</symbol>
<symbol overflow="visible" id="glyph0-1">
<path style="stroke:none;" d="M 3.546875 -5.953125 C 2.898438 -5.953125 2.382812 -5.710938 2 -5.234375 C 1.625 -4.753906 1.4375 -4.101562 1.4375 -3.28125 C 1.4375 -2.445312 1.625 -1.789062 2 -1.3125 C 2.382812 -0.832031 2.898438 -0.59375 3.546875 -0.59375 C 4.191406 -0.59375 4.703125 -0.832031 5.078125 -1.3125 C 5.453125 -1.789062 5.640625 -2.445312 5.640625 -3.28125 C 5.640625 -4.101562 5.453125 -4.753906 5.078125 -5.234375 C 4.703125 -5.710938 4.191406 -5.953125 3.546875 -5.953125 Z M 3.546875 -6.6875 C 4.460938 -6.6875 5.195312 -6.375 5.75 -5.75 C 6.300781 -5.132812 6.578125 -4.3125 6.578125 -3.28125 C 6.578125 -2.238281 6.300781 -1.410156 5.75 -0.796875 C 5.195312 -0.179688 4.460938 0.125 3.546875 0.125 C 2.617188 0.125 1.878906 -0.179688 1.328125 -0.796875 C 0.773438 -1.410156 0.5 -2.238281 0.5 -3.28125 C 0.5 -4.3125 0.773438 -5.132812 1.328125 -5.75 C 1.878906 -6.375 2.617188 -6.6875 3.546875 -6.6875 Z M 3.546875 -6.6875 "/>
</symbol>
<symbol overflow="visible" id="glyph0-2">
<path style="stroke:none;" d="M 0.890625 -6.5625 L 2.078125 -6.5625 L 4.984375 -1.078125 L 4.984375 -6.5625 L 5.84375 -6.5625 L 5.84375 0 L 4.65625 0 L 1.75 -5.484375 L 1.75 0 L 0.890625 0 Z M 0.890625 -6.5625 "/>
</symbol>
<symbol overflow="visible" id="glyph0-3">
<path style="stroke:none;" d="M 0.890625 -6.5625 L 1.765625 -6.5625 L 1.765625 -3.875 L 5 -3.875 L 5 -6.5625 L 5.890625 -6.5625 L 5.890625 0 L 5 0 L 5 -3.125 L 1.765625 -3.125 L 1.765625 0 L 0.890625 0 Z M 0.890625 -6.5625 "/>
</symbol>
</g>
</defs>
<g id="surface35709">
<rect x="0" y="0" width="300" height="300" style="fill:rgb(100%,100%,100%);fill-opacity:1;stroke:none;"/>
<path style="fill:none;stroke-width:1.2;stroke-linecap:butt;stroke-linejoin:miter;stroke:rgb(0%,0%,0%);stroke-opacity:1;stroke-miterlimit:10;" d="M 35.25 241.839844 L 36.105469 218.507812 "/>
<path style="fill:none;stroke-width:1.2;stroke-linecap:butt;stroke-linejoin:miter;stroke:rgb(0%,0%,0%);stroke-opacity:1;stroke-miterlimit:10;" d="M 40.824219 239.707031 L 41.511719 221.042969 "/>
<path style="fill:none;stroke-width:1.2;stroke-linecap:butt;stroke-linejoin:miter;stroke:rgb(0%,0%,0%);stroke-opacity:1;stroke-miterlimit:10;" d="M 29.847656 239.304688 L 30.53125 220.640625 "/>
<path style="fill:none;stroke-width:1.2;stroke-linecap:butt;stroke-linejoin:miter;stroke:rgb(0%,0%,0%);stroke-opacity:1;stroke-miterlimit:10;" d="M 36.105469 218.507812 L 36.964844 195.175781 "/>
<path style="fill:none;stroke-width:1.2;stroke-linecap:butt;stroke-linejoin:miter;stroke:rgb(0%,0%,0%);stroke-opacity:1;stroke-miterlimit:10;" d="M 36.964844 195.175781 L 57.597656 184.253906 "/>
<path style="fill:none;stroke-width:1.2;stroke-linecap:butt;stroke-linejoin:miter;stroke:rgb(0%,0%,0%);stroke-opacity:1;stroke-miterlimit:10;" d="M 57.597656 184.253906 L 58.457031 160.921875 "/>
<path style="fill:none;stroke-width:1.2;stroke-linecap:butt;stroke-linejoin:miter;stroke:rgb(0%,0%,0%);stroke-opacity:1;stroke-miterlimit:10;" d="M 58.457031 160.921875 L 68.773438 155.460938 "/>
<path style="fill:none;stroke-width:1.2;stroke-linecap:butt;stroke-linejoin:miter;stroke:rgb(100%,0%,0%);stroke-opacity:1;stroke-miterlimit:10;" d="M 68.773438 155.460938 L 79.089844 150 "/>
<path style="fill:none;stroke-width:1.2;stroke-linecap:butt;stroke-linejoin:miter;stroke:rgb(100%,0%,0%);stroke-opacity:1;stroke-miterlimit:10;" d="M 79.089844 150 L 79.519531 138.335938 "/>
<path style="fill:none;stroke-width:1.2;stroke-linecap:butt;stroke-linejoin:miter;stroke:rgb(0%,0%,100%);stroke-opacity:1;stroke-miterlimit:10;" d="M 79.519531 138.335938 L 79.945312 126.667969 "/>
<path style=" stroke:none;fill-rule:nonzero;fill:rgb(100%,100%,100%);fill-opacity:1;" d="M 75.089844 144.5 L 83.089844 144.5 L 83.089844 155.5 L 75.089844 155.5 Z M 75.089844 144.5 "/>
<g style="fill:rgb(100%,0%,0%);fill-opacity:1;">
  <use xlink:href="#glyph0-1" x="75.089844" y="153.163086"/>
</g>
<path style="fill:none;stroke-width:1.2;stroke-linecap:butt;stroke-linejoin:miter;stroke:rgb(0%,0%,100%);stroke-opacity:1;stroke-miterlimit:10;" d="M 79.945312 126.667969 L 90.261719 121.207031 "/>
<path style="fill:none;stroke-width:1.2;stroke-linecap:butt;stroke-linejoin:miter;stroke:rgb(0%,0%,0%);stroke-opacity:1;stroke-miterlimit:10;" d="M 90.261719 121.207031 L 100.582031 115.746094 "/>
<path style="fill:none;stroke-width:1.2;stroke-linecap:butt;stroke-linejoin:miter;stroke:rgb(0%,0%,100%);stroke-opacity:1;stroke-miterlimit:10;" d="M 84.578125 130.433594 L 92.832031 126.0625 "/>
<path style="fill:none;stroke-width:1.2;stroke-linecap:butt;stroke-linejoin:miter;stroke:rgb(0%,0%,0%);stroke-opacity:1;stroke-miterlimit:10;" d="M 92.832031 126.0625 L 101.085938 121.691406 "/>
<path style=" stroke:none;fill-rule:nonzero;fill:rgb(100%,100%,100%);fill-opacity:1;" d="M 76.945312 121.167969 L 83.945312 121.167969 L 83.945312 132.167969 L 76.945312 132.167969 Z M 76.945312 121.167969 "/>
<g style="fill:rgb(0%,0%,100%);fill-opacity:1;">
  <use xlink:href="#glyph0-2" x="76.945312" y="129.831055"/>
</g>
<path style="fill:none;stroke-width:1.2;stroke-linecap:butt;stroke-linejoin:miter;stroke:rgb(0%,0%,0%);stroke-opacity:1;stroke-miterlimit:10;" d="M 100.582031 115.746094 L 101.4375 92.414062 "/>
<path style="fill:none;stroke-width:1.2;stroke-linecap:butt;stroke-linejoin:miter;stroke:rgb(0%,0%,0%);stroke-opacity:1;stroke-miterlimit:10;" d="M 100.582031 115.746094 L 120.355469 128.152344 "/>
<path style="fill:none;stroke-width:1.2;stroke-linecap:butt;stroke-linejoin:miter;stroke:rgb(0%,0%,0%);stroke-opacity:1;stroke-miterlimit:10;" d="M 101.4375 92.414062 L 122.070312 81.492188 "/>
<path style="fill:none;stroke-width:1.2;stroke-linecap:butt;stroke-linejoin:miter;stroke:rgb(0%,0%,0%);stroke-opacity:1;stroke-miterlimit:10;" d="M 122.070312 81.492188 L 141.847656 93.898438 "/>
<path style=" stroke:none;fill-rule:nonzero;fill:rgb(0%,0%,0%);fill-opacity:1;" d="M 122.070312 81.492188 L 127.046875 58.3125 L 118.8125 58.007812 Z M 122.070312 81.492188 "/>
<path style="fill:none;stroke-width:1.2;stroke-linecap:butt;stroke-linejoin:miter;stroke:rgb(0%,0%,0%);stroke-opacity:1;stroke-miterlimit:10;" d="M 141.847656 93.898438 L 140.992188 117.230469 "/>
<path style=" stroke:none;fill-rule:nonzero;fill:rgb(0%,0%,0%);fill-opacity:1;" d="M 141.847656 93.898438 L 164.410156 86.617188 L 160.554688 79.335938 Z M 141.847656 93.898438 "/>
<path style="fill:none;stroke-width:1;stroke-linecap:butt;stroke-linejoin:miter;stroke:rgb(0%,0%,0%);stroke-opacity:1;stroke-miterlimit:10;" d="M 140.992188 117.230469 L 140.992188 117.230469 M 138.136719 118.152344 L 138.625 119.074219 M 135.28125 119.074219 L 136.257812 120.917969 M 132.425781 119.996094 L 133.890625 122.757812 M 129.570312 120.917969 L 131.523438 124.601562 M 126.714844 121.835938 L 129.15625 126.445312 M 123.859375 122.757812 L 126.789062 128.289062 M 121.007812 123.679688 L 124.421875 130.132812 M 118.429688 124.511719 L 122.285156 131.792969 "/>
<path style="fill:none;stroke-width:1.2;stroke-linecap:butt;stroke-linejoin:miter;stroke:rgb(0%,0%,0%);stroke-opacity:1;stroke-miterlimit:10;" d="M 160.765625 129.636719 L 140.992188 117.230469 "/>
<path style="fill:none;stroke-width:1;stroke-linecap:butt;stroke-linejoin:miter;stroke:rgb(0%,0%,0%);stroke-opacity:1;stroke-miterlimit:10;" d="M 120.355469 128.152344 L 120.355469 128.152344 M 119.726562 131.085938 L 120.769531 131.125 M 119.097656 134.019531 L 121.183594 134.097656 M 118.46875 136.953125 L 121.59375 137.066406 M 117.839844 139.886719 L 122.007812 140.039062 M 117.210938 142.820312 L 122.417969 143.011719 M 116.578125 145.753906 L 122.832031 145.984375 M 115.949219 148.6875 L 123.246094 148.953125 M 115.382812 151.332031 L 123.617188 151.636719 "/>
<path style="fill:none;stroke-width:1.2;stroke-linecap:butt;stroke-linejoin:miter;stroke:rgb(0%,0%,0%);stroke-opacity:1;stroke-miterlimit:10;" d="M 119.5 151.484375 L 139.277344 163.890625 "/>
<path style=" stroke:none;fill-rule:nonzero;fill:rgb(0%,0%,0%);fill-opacity:1;" d="M 159.910156 152.96875 L 137.347656 160.25 L 141.203125 167.535156 Z M 159.910156 152.96875 "/>
<path style="fill:none;stroke-width:1.2;stroke-linecap:butt;stroke-linejoin:miter;stroke:rgb(0%,0%,0%);stroke-opacity:1;stroke-miterlimit:10;" d="M 159.910156 152.96875 L 160.765625 129.636719 "/>
<path style="fill:none;stroke-width:1.2;stroke-linecap:butt;stroke-linejoin:miter;stroke:rgb(0%,0%,0%);stroke-opacity:1;stroke-miterlimit:10;" d="M 181.835938 160.996094 L 159.910156 152.96875 "/>
<path style="fill:none;stroke-width:1;stroke-linecap:butt;stroke-linejoin:miter;stroke:rgb(0%,0%,0%);stroke-opacity:1;stroke-miterlimit:10;" d="M 160.765625 129.636719 L 160.765625 129.636719 M 163.75 129.332031 L 163.464844 128.328125 M 166.734375 129.023438 L 166.164062 127.015625 M 169.71875 128.714844 L 168.863281 125.707031 M 172.703125 128.40625 L 171.5625 124.394531 M 175.6875 128.097656 L 174.261719 123.085938 M 178.671875 127.792969 L 176.957031 121.773438 M 181.65625 127.484375 L 179.65625 120.464844 M 184.351562 127.207031 L 182.09375 119.28125 "/>
<path style="fill:none;stroke-width:1.2;stroke-linecap:butt;stroke-linejoin:miter;stroke:rgb(0%,0%,0%);stroke-opacity:1;stroke-miterlimit:10;" d="M 185.800781 124.1875 L 189.8125 113.226562 "/>
<path style="fill:none;stroke-width:1.2;stroke-linecap:butt;stroke-linejoin:miter;stroke:rgb(100%,0%,0%);stroke-opacity:1;stroke-miterlimit:10;" d="M 189.8125 113.226562 L 193.824219 102.265625 "/>
<path style="fill:none;stroke-width:1.2;stroke-linecap:butt;stroke-linejoin:miter;stroke:rgb(0%,0%,0%);stroke-opacity:1;stroke-miterlimit:10;" d="M 180.640625 122.300781 L 184.65625 111.335938 "/>
<path style="fill:none;stroke-width:1.2;stroke-linecap:butt;stroke-linejoin:miter;stroke:rgb(100%,0%,0%);stroke-opacity:1;stroke-miterlimit:10;" d="M 184.65625 111.335938 L 188.667969 100.375 "/>
<path style="fill:none;stroke-width:1.2;stroke-linecap:butt;stroke-linejoin:miter;stroke:rgb(0%,0%,0%);stroke-opacity:1;stroke-miterlimit:10;" d="M 183.222656 123.242188 L 189.730469 132.933594 "/>
<path style="fill:none;stroke-width:1.2;stroke-linecap:butt;stroke-linejoin:miter;stroke:rgb(0%,0%,100%);stroke-opacity:1;stroke-miterlimit:10;" d="M 189.730469 132.933594 L 196.242188 142.621094 "/>
<path style=" stroke:none;fill-rule:nonzero;fill:rgb(100%,100%,100%);fill-opacity:1;" d="M 187.246094 95.820312 L 195.246094 95.820312 L 195.246094 106.820312 L 187.246094 106.820312 Z M 187.246094 95.820312 "/>
<g style="fill:rgb(100%,0%,0%);fill-opacity:1;">
  <use xlink:href="#glyph0-1" x="187.246094" y="104.483398"/>
</g>
<path style="fill:none;stroke-width:1.2;stroke-linecap:butt;stroke-linejoin:miter;stroke:rgb(0%,0%,100%);stroke-opacity:1;stroke-miterlimit:10;" d="M 196.242188 142.621094 L 189.039062 151.808594 "/>
<path style="fill:none;stroke-width:1.2;stroke-linecap:butt;stroke-linejoin:miter;stroke:rgb(0%,0%,0%);stroke-opacity:1;stroke-miterlimit:10;" d="M 189.039062 151.808594 L 181.835938 160.996094 "/>
<path style="fill:none;stroke-width:1.2;stroke-linecap:butt;stroke-linejoin:miter;stroke:rgb(0%,0%,100%);stroke-opacity:1;stroke-miterlimit:10;" d="M 196.242188 142.621094 L 207.90625 143.050781 "/>
<path style="fill:none;stroke-width:1.2;stroke-linecap:butt;stroke-linejoin:miter;stroke:rgb(0%,0%,0%);stroke-opacity:1;stroke-miterlimit:10;" d="M 207.90625 143.050781 L 219.574219 143.480469 "/>
<path style=" stroke:none;fill-rule:nonzero;fill:rgb(100%,100%,100%);fill-opacity:1;" d="M 193.242188 137.121094 L 200.242188 137.121094 L 200.242188 148.121094 L 193.242188 148.121094 Z M 193.242188 137.121094 "/>
<g style="fill:rgb(0%,0%,100%);fill-opacity:1;">
  <use xlink:href="#glyph0-2" x="193.242188" y="145.78418"/>
</g>
<path style="fill:none;stroke-width:1.2;stroke-linecap:butt;stroke-linejoin:miter;stroke:rgb(0%,0%,0%);stroke-opacity:1;stroke-miterlimit:10;" d="M 179.191406 161.746094 L 182.390625 172.972656 "/>
<path style="fill:none;stroke-width:1.2;stroke-linecap:butt;stroke-linejoin:miter;stroke:rgb(100%,0%,0%);stroke-opacity:1;stroke-miterlimit:10;" d="M 182.390625 172.972656 L 185.585938 184.199219 "/>
<path style="fill:none;stroke-width:1.2;stroke-linecap:butt;stroke-linejoin:miter;stroke:rgb(0%,0%,0%);stroke-opacity:1;stroke-miterlimit:10;" d="M 184.476562 160.242188 L 187.671875 171.46875 "/>
<path style="fill:none;stroke-width:1.2;stroke-linecap:butt;stroke-linejoin:miter;stroke:rgb(100%,0%,0%);stroke-opacity:1;stroke-miterlimit:10;" d="M 187.671875 171.46875 L 190.871094 182.695312 "/>
<path style=" stroke:none;fill-rule:nonzero;fill:rgb(100%,100%,100%);fill-opacity:1;" d="M 184.230469 177.949219 L 192.230469 177.949219 L 192.230469 188.949219 L 184.230469 188.949219 Z M 184.230469 177.949219 "/>
<g style="fill:rgb(100%,0%,0%);fill-opacity:1;">
  <use xlink:href="#glyph0-1" x="184.230469" y="186.612305"/>
</g>
<path style="fill:none;stroke-width:1.2;stroke-linecap:butt;stroke-linejoin:miter;stroke:rgb(0%,0%,0%);stroke-opacity:1;stroke-miterlimit:10;" d="M 219.574219 143.480469 L 230.496094 164.113281 "/>
<path style="fill:none;stroke-width:1.2;stroke-linecap:butt;stroke-linejoin:miter;stroke:rgb(0%,0%,0%);stroke-opacity:1;stroke-miterlimit:10;" d="M 230.496094 164.113281 L 218.089844 183.890625 "/>
<path style="fill:none;stroke-width:1.2;stroke-linecap:butt;stroke-linejoin:miter;stroke:rgb(0%,0%,0%);stroke-opacity:1;stroke-miterlimit:10;" d="M 233.910156 169.011719 L 223.980469 184.832031 "/>
<path style="fill:none;stroke-width:1.2;stroke-linecap:butt;stroke-linejoin:miter;stroke:rgb(0%,0%,0%);stroke-opacity:1;stroke-miterlimit:10;" d="M 253.828125 164.972656 L 230.496094 164.113281 "/>
<path style="fill:none;stroke-width:1.2;stroke-linecap:butt;stroke-linejoin:miter;stroke:rgb(0%,0%,0%);stroke-opacity:1;stroke-miterlimit:10;" d="M 218.089844 183.890625 L 229.011719 204.523438 "/>
<path style="fill:none;stroke-width:1.2;stroke-linecap:butt;stroke-linejoin:miter;stroke:rgb(0%,0%,0%);stroke-opacity:1;stroke-miterlimit:10;" d="M 229.011719 204.523438 L 252.34375 205.382812 "/>
<path style="fill:none;stroke-width:1.2;stroke-linecap:butt;stroke-linejoin:miter;stroke:rgb(0%,0%,0%);stroke-opacity:1;stroke-miterlimit:10;" d="M 231.546875 199.121094 L 250.210938 199.804688 "/>
<path style="fill:none;stroke-width:1.2;stroke-linecap:butt;stroke-linejoin:miter;stroke:rgb(0%,0%,0%);stroke-opacity:1;stroke-miterlimit:10;" d="M 252.34375 205.382812 L 264.75 185.605469 "/>
<path style="fill:none;stroke-width:1.2;stroke-linecap:butt;stroke-linejoin:miter;stroke:rgb(0%,0%,0%);stroke-opacity:1;stroke-miterlimit:10;" d="M 264.75 185.605469 L 253.828125 164.972656 "/>
<path style="fill:none;stroke-width:1.2;stroke-linecap:butt;stroke-linejoin:miter;stroke:rgb(0%,0%,0%);stroke-opacity:1;stroke-miterlimit:10;" d="M 258.800781 186.113281 L 250.0625 169.605469 "/>
<path style=" stroke:none;fill-rule:nonzero;fill:rgb(100%,100%,100%);fill-opacity:1;" d="M 155.480469 77.476562 L 170.480469 77.476562 L 170.480469 88.476562 L 155.480469 88.476562 Z M 155.480469 77.476562 "/>
<g style="fill:rgb(100%,0%,0%);fill-opacity:1;">
  <use xlink:href="#glyph0-1" x="155.480469" y="86.139648"/>
  <use xlink:href="#glyph0-3" x="162.822266" y="86.139648"/>
</g>
<path style=" stroke:none;fill-rule:nonzero;fill:rgb(100%,100%,100%);fill-opacity:1;" d="M 115.929688 52.660156 L 130.929688 52.660156 L 130.929688 63.660156 L 115.929688 63.660156 Z M 115.929688 52.660156 "/>
<g style="fill:rgb(100%,0%,0%);fill-opacity:1;">
  <use xlink:href="#glyph0-1" x="115.929688" y="61.323242"/>
  <use xlink:href="#glyph0-3" x="123.271484" y="61.323242"/>
</g>
</g>
</svg>

<svg xmlns="http://www.w3.org/2000/svg" xmlns:xlink="http://www.w3.org/1999/xlink" width="300pt" height="300pt" viewBox="0 0 300 300"><defs><symbol overflow="visible"><path d="M.453 1.594v-7.938h4.5v7.938zm.5-.5h3.5v-6.938h-3.5zm0 0"/></symbol><symbol overflow="visible" id="a"><path d="M3.547-5.953c-.65 0-1.164.242-1.547.72-.375.48-.563 1.13-.563 1.952 0 .835.188 1.49.563 1.967.383.48.898.72 1.547.72.644 0 1.156-.24 1.53-.72.376-.476.564-1.132.564-1.968 0-.822-.187-1.474-.562-1.954-.375-.477-.887-.72-1.53-.72zm0-.734c.914 0 1.648.312 2.203.937.55.617.828 1.438.828 2.47 0 1.042-.277 1.87-.828 2.483-.555.617-1.29.922-2.203.922-.93 0-1.668-.305-2.22-.922C.774-1.41.5-2.237.5-3.28c0-1.033.273-1.853.828-2.47.55-.625 1.29-.938 2.22-.938zm0 0"/></symbol><symbol overflow="visible" id="b"><path d="M.89-6.563H2.08l2.906 5.485v-5.484h.86V0H4.656L1.75-5.484V0H.89zm0 0"/></symbol><symbol overflow="visible" id="c"><path d="M.89-6.563h.876v2.688H5v-2.688h.89V0H5v-3.125H1.766V0H.89zm0 0"/></symbol></defs><g><path fill="#fff" d="M0 0h300v300H0z"/><path d="M35.25 241.84l.855-23.332M40.824 239.707l.688-18.664M29.848 239.305l.683-18.664M36.105 218.508l.86-23.332M36.965 195.176l20.633-10.922M57.598 184.254l.86-23.332M58.457 160.922l10.316-5.46" stroke-width="1.2" stroke="#000" stroke-miterlimit="10" fill="none"/><path d="M68.773 155.46L79.09 150M79.09 150l.43-11.664" stroke-width="1.2" stroke="#f00" stroke-miterlimit="10" fill="none"/><path d="M79.52 138.336l.425-11.668" stroke-width="1.2" stroke="#00f" stroke-miterlimit="10" fill="none"/><path d="M75.09 144.5h8v11h-8zm0 0" fill="#fff"/><use xlink:href="#a" x="75.09" y="153.163" fill="#f00"/><path d="M79.945 126.668l10.317-5.46" stroke-width="1.2" stroke="#00f" stroke-miterlimit="10" fill="none"/><path d="M90.262 121.207l10.32-5.46" stroke-width="1.2" stroke="#000" stroke-miterlimit="10" fill="none"/><path d="M84.578 130.434l8.254-4.37" stroke-width="1.2" stroke="#00f" stroke-miterlimit="10" fill="none"/><path d="M92.832 126.063l8.254-4.372" stroke-width="1.2" stroke="#000" stroke-miterlimit="10" fill="none"/><path d="M76.945 121.168h7v11h-7zm0 0" fill="#fff"/><use xlink:href="#b" x="76.945" y="129.831" fill="#00f"/><path d="M100.582 115.746l.856-23.332M100.582 115.746l19.773 12.406M101.438 92.414l20.632-10.922M122.07 81.492l19.778 12.406" stroke-width="1.2" stroke="#000" stroke-miterlimit="10" fill="none"/><path d="M122.07 81.492l4.977-23.18-8.234-.304zm0 0"/><path d="M141.848 93.898l-.856 23.332" stroke-width="1.2" stroke="#000" stroke-miterlimit="10" fill="none"/><path d="M141.848 93.898l22.562-7.28-3.855-7.282zm0 0"/><path d="M140.992 117.23m-2.855.922l.488.922m-3.344 0l.978 1.844m-3.832-.922l1.465 2.762m-4.32-1.84l1.953 3.684m-4.808-2.766l2.44 4.61m-5.296-3.688l2.93 5.53m-5.782-4.608l3.414 6.453m-5.992-5.62l3.855 7.28" stroke="#000" stroke-miterlimit="10" fill="none"/><path d="M160.766 129.637l-19.774-12.407" stroke-width="1.2" stroke="#000" stroke-miterlimit="10" fill="none"/><path d="M120.355 128.152m-.628 2.934l1.043.04m-1.672 2.894l2.086.078m-2.715 2.855l3.124.113m-3.754 2.82l4.168.153m-4.797 2.78l5.208.192m-5.84 2.742l6.254.23m-6.883 2.703l7.296.266m-7.863 2.38l8.234.304" stroke="#000" stroke-miterlimit="10" fill="none"/><path d="M119.5 151.484l19.777 12.407" stroke-width="1.2" stroke="#000" stroke-miterlimit="10" fill="none"/><path d="M159.91 152.97l-22.562 7.28 3.855 7.285zm0 0"/><path d="M159.91 152.97l.856-23.333M181.836 160.996l-21.926-8.027" stroke-width="1.2" stroke="#000" stroke-miterlimit="10" fill="none"/><path d="M160.766 129.637m2.984-.305l-.285-1.004m3.27.695l-.57-2.007m3.554 1.7l-.857-3.01m3.84 2.7l-1.14-4.01m4.125 3.702l-1.426-5.012m4.41 4.707l-1.715-6.02m4.7 5.71l-2-7.018m4.695 6.742l-2.258-7.926" stroke="#000" stroke-miterlimit="10" fill="none"/><path d="M185.8 124.188l4.012-10.96" stroke-width="1.2" stroke="#000" stroke-miterlimit="10" fill="none"/><path d="M189.813 113.227l4.01-10.96" stroke-width="1.2" stroke="#f00" stroke-miterlimit="10" fill="none"/><path d="M180.64 122.3l4.016-10.964" stroke-width="1.2" stroke="#000" stroke-miterlimit="10" fill="none"/><path d="M184.656 111.336l4.012-10.96" stroke-width="1.2" stroke="#f00" stroke-miterlimit="10" fill="none"/><path d="M183.223 123.242l6.507 9.692" stroke-width="1.2" stroke="#000" stroke-miterlimit="10" fill="none"/><path d="M189.73 132.934l6.512 9.687" stroke-width="1.2" stroke="#00f" stroke-miterlimit="10" fill="none"/><path d="M187.246 95.82h8v11h-8zm0 0" fill="#fff"/><use xlink:href="#a" x="187.246" y="104.483" fill="#f00"/><path d="M196.242 142.62l-7.203 9.19" stroke-width="1.2" stroke="#00f" stroke-miterlimit="10" fill="none"/><path d="M189.04 151.81l-7.204 9.186" stroke-width="1.2" stroke="#000" stroke-miterlimit="10" fill="none"/><path d="M196.242 142.62l11.664.43" stroke-width="1.2" stroke="#00f" stroke-miterlimit="10" fill="none"/><path d="M207.906 143.05l11.668.43" stroke-width="1.2" stroke="#000" stroke-miterlimit="10" fill="none"/><path d="M193.242 137.12h7v11h-7zm0 0" fill="#fff"/><use xlink:href="#b" x="193.242" y="145.784" fill="#00f"/><path d="M179.19 161.746l3.2 11.227" stroke-width="1.2" stroke="#000" stroke-miterlimit="10" fill="none"/><path d="M182.39 172.973l3.196 11.226" stroke-width="1.2" stroke="#f00" stroke-miterlimit="10" fill="none"/><path d="M184.477 160.242l3.195 11.227" stroke-width="1.2" stroke="#000" stroke-miterlimit="10" fill="none"/><path d="M187.672 171.47l3.2 11.225" stroke-width="1.2" stroke="#f00" stroke-miterlimit="10" fill="none"/><path d="M184.23 177.95h8v11h-8zm0 0" fill="#fff"/><use xlink:href="#a" x="184.23" y="186.612" fill="#f00"/><path d="M219.574 143.48l10.922 20.633M230.496 164.113L218.09 183.89M233.91 169.012l-9.93 15.82M253.828 164.973l-23.332-.86M218.09 183.89l10.922 20.633M229.012 204.523l23.332.86M231.547 199.12l18.664.685M252.344 205.383l12.406-19.778M264.75 185.605l-10.922-20.632M258.8 186.113l-8.738-16.508" stroke-width="1.2" stroke="#000" stroke-miterlimit="10" fill="none"/><path d="M155.48 77.477h15v11h-15zm0 0" fill="#fff"/><g fill="#f00"><use xlink:href="#a" x="155.48" y="86.14"/><use xlink:href="#c" x="162.822" y="86.14"/></g><path d="M115.93 52.66h15v11h-15zm0 0" fill="#fff"/><g fill="#f00"><use xlink:href="#a" x="115.93" y="61.323"/><use xlink:href="#c" x="123.271" y="61.323"/></g></g></svg>
